X: 37743
T: Sollus Lillis
R: reel
M: 4/4
K: Gmajor
|:G2 FG EGDE|G2 BG dGBA|GAFG EGDG|(3Bcd ed BdAB|
G2 FG EGDE|G2 BG dGBA|G2 FG EGDG|(3Bcd ed BA A2:|
|:BA A2 BAGA|BA A2 (3Bcd ed|BA A2 BAGE|DEGA (3Bcd ed|
BA A2 BAGA|BA A2 (3Bcd ed|BA A2 BAGE|DEGA BdAB:|

